X:1
T:Title
%%score { ( 1 3 ) | 2 }
L:1/8
M:9/8
K:Eb
V:1 treble nm="Grand Piano"
V:3 treble 
V:2 bass 
V:1
 z3 z3[Q:1/4=100] B=AB | c3 B3 EFG | [CA]3 [A,C]3 [CF][CF][CF] | [B,E]3 [EG]3 GFE | %4
 [DB]6 B[=Ac][_Ad] | [Ge]3 [GB]3 GAB | c3 e3 ccc | B3 c3 [DB][DA][DF] |[M:3/4] E6 |[M:3/8] BBB | %10
[M:9/8] d3 B3 [DB][C=Ac][_Ad] | [Ge]3 [EGB]3 GAB | %12
 [Ac]-[EA-c-][EAc] [Ac]2- [EAc] [F=Ac][FA=B][FAc] | d3- [Ad]3 [Ad][AB][Af] | %14
 [Ge]3 [GB]3 [EG][FA][GB] | c3 e3 edc | [GB]3 [Ac]3 z3 | z B,B, B,3 eee | e-[Ee-][Ee] E2 E eee | %19
 e-[Ee-][Ee] E2 E [Ec][Ec][Ec] | [EB]3 [Ee]3 [Ad][Ac][Ad] |[M:3/4] [Ge]6 |] %22
V:2
 z3 z3 [E,G,E][E,_G,E][E,=G,E] | [E,A,E]3 [E,G,E]3 [E,G,][E,A,D][E,B,_D] | %2
 [A,,A,]3 [A,,E,]3 [A,,A,][A,,A,][A,,A,] | [B,,G,]3 [B,,B,]3 [F,=A,C][F,A,C][F,A,C] | %4
 [B,,F,]6 [B,,B,][B,,B,][B,,B,] | [E,B,]3 [E,E]3 [E,B,E][F,B,D][K:treble][G,B,E] | %6
 [A,E]3 [A,CE]3 [=A,E_G][A,EG][A,EG] | [B,EG]3 [B,DA]3[K:bass] [B,,F,][B,,B,][B,,A,] | %8
[M:3/4] [E,G,B,]6 |[M:3/8][K:treble] [B,DA][B,DA][B,DA] | %10
[M:9/8] [B,FA]3 [B,DA]3[K:bass] B,,B,,[B,,B,] | [E,B,]3 E,3[K:treble] EFG | %12
 A,A,[K:bass]A, A,2 A, F,F,F, | B,B,B, B,3 [B,,B,][B,,B,][B,,B,] | %14
 [E,B,]3 [E,E]3 [E,B,][E,B,][E,E] | [A,EA]3 [A,CA]3 cBA | B,B,B, B,2 B, [B,,F,][B,,F,][B,,B,] | %17
 [E,B,]E,E, E,3 z3 | [=B,,_G,][B,,G,][B,,G,] [B,,G,]2 [B,,G,] z3 | %19
 [B,,G,][B,,G,][B,,G,] [B,,G,]2 [B,,G,] [=A,,_G,][A,,G,][A,,G,] | %20
 [B,,G,]3 [B,,G,]3 [B,,B,][B,,B,][B,,B,] |[M:3/4] [E,B,]6 |] %22
V:3
 x9 | x9 | x9 | x9 | x9 | x9 | x9 | x9 |[M:3/4] x6 |[M:3/8] x3 |[M:9/8] x9 | x9 | .E3 .E3 z3 | %13
 B3 z3 z3 | x9 | x9 | EEE D2 D [DB][DA][DF] | [EG]6 z3 | .E3 z3 z3 | .E3 z3 z3 | x9 |[M:3/4] x6 |] %22

